assets/images/svg-arrow.svg

<svg fill="none" height="24" stroke-width="1.5" viewBox="0 0 24 24" width="24" xmlns="http://www.w3.org/2000/svg"><path d="m4.03132 8.91684 15.47668-4.33347c.3755-.10513.7214.24084.6163.6163l-4.3335 15.47663c-.1266.4521-.7501.4963-.9391.0666l-3.2483-7.3824c-.0503-.1145-.1418-.2059-.2563-.2563l-7.38233-3.24822c-.4297-.18906-.38551-.81256.06655-.93914z" stroke="#000" stroke-linecap="round" stroke-linejoin="round" stroke-width="1.5"/></svg>

<svg width="24px" height="24px" stroke-width="1.5" viewBox="0 0 24 24" fill="none" xmlns="http://www.w3.org/2000/svg" color="#000000"><path d="M4.03132 8.91684L19.508 4.58337C19.8835 4.47824 20.2294 4.82421 20.1243 5.19967L15.7908 20.6763C15.6642 21.1284 15.0407 21.1726 14.8517 20.7429L11.6034 13.3605C11.5531 13.246 11.4616 13.1546 11.3471 13.1042L3.96477 9.85598C3.53507 9.66692 3.57926 9.04342 4.03132 8.91684Z" stroke="#000000" stroke-width="1.5" stroke-linecap="round" stroke-linejoin="round"></path></svg>
